assets/img/braze_icons/face-smile.svg

<svg fill="none" height="24" viewBox="0 0 24 24" width="24" xmlns="http://www.w3.org/2000/svg"><path clip-rule="evenodd" d="m12 1c-6.07513 0-11 4.92487-11 11 0 6.0751 4.92487 11 11 11 6.0751 0 11-4.9249 11-11 0-6.07513-4.9249-11-11-11zm-4.5 8c0-.82843.67157-1.5 1.5-1.5s1.5.67157 1.5 1.5-.67157 1.5-1.5 1.5-1.5-.67157-1.5-1.5zm6 0c0-.82843.6716-1.5 1.5-1.5s1.5.67157 1.5 1.5-.6716 1.5-1.5 1.5-1.5-.67157-1.5-1.5zm-6.09994 4.2001c.44043-.3304 1.06468-.2424 1.39686.1958l.00464.0059c.00595.0075.01727.0216.03381.0413.03315.0395.08688.1011.16011.1776.1473.1537.36865.3622.65525.5706.57707.4197 1.37487.8088 2.34937.8088.9744 0 1.7722-.3891 2.3493-.8088.2866-.2084.5079-.4169.6552-.5706.0733-.0765.127-.1381.1601-.1776.0166-.0197.0279-.0338.0339-.0413l.0046-.0059c.3322-.4382.9564-.5262 1.3969-.1958.4418.3313.5313.9581.2 1.4l-.1034.1288c-.0586.0698-.1416.1645-.2481.2756-.2121.2213-.522.5127-.9229.8043-.7979.5803-2.0001 1.1913-3.5256 1.1913-1.5256 0-2.72777-.611-3.52571-1.1913-.4009-.2916-.71081-.583-.92288-.8043-.10645-.1111-.18944-.2058-.24809-.2756-.03541-.0422-.06965-.0853-.10336-.1288-.33137-.4419-.24183-1.0687.2-1.4z" fill="#801ed7" fill-rule="evenodd"/></svg>

<svg width="24" height="24" viewBox="0 0 24 24" fill="none" xmlns="http://www.w3.org/2000/svg">
<path fill-rule="evenodd" clip-rule="evenodd" d="M12 1C5.92487 1 1 5.92487 1 12C1 18.0751 5.92487 23 12 23C18.0751 23 23 18.0751 23 12C23 5.92487 18.0751 1 12 1ZM7.5 9C7.5 8.17157 8.17157 7.5 9 7.5C9.82843 7.5 10.5 8.17157 10.5 9C10.5 9.82843 9.82843 10.5 9 10.5C8.17157 10.5 7.5 9.82843 7.5 9ZM13.5 9C13.5 8.17157 14.1716 7.5 15 7.5C15.8284 7.5 16.5 8.17157 16.5 9C16.5 9.82843 15.8284 10.5 15 10.5C14.1716 10.5 13.5 9.82843 13.5 9ZM7.40006 13.2001C7.84049 12.8697 8.46474 12.9577 8.79692 13.3959L8.80156 13.4018C8.80751 13.4093 8.81883 13.4234 8.83537 13.4431C8.86852 13.4826 8.92225 13.5442 8.99548 13.6207C9.14278 13.7744 9.36413 13.9829 9.65073 14.1913C10.2278 14.611 11.0256 15.0001 12.0001 15.0001C12.9745 15.0001 13.7723 14.611 14.3494 14.1913C14.636 13.9829 14.8573 13.7744 15.0046 13.6207C15.0779 13.5442 15.1316 13.4826 15.1647 13.4431C15.1813 13.4234 15.1926 13.4093 15.1986 13.4018L15.2032 13.3959C15.5354 12.9577 16.1596 12.8697 16.6001 13.2001C17.0419 13.5314 17.1314 14.1582 16.8001 14.6001L16.6967 14.7289C16.6381 14.7987 16.5551 14.8934 16.4486 15.0045C16.2365 15.2258 15.9266 15.5172 15.5257 15.8088C14.7278 16.3891 13.5256 17.0001 12.0001 17.0001C10.4745 17.0001 9.27233 16.3891 8.47439 15.8088C8.07349 15.5172 7.76358 15.2258 7.55151 15.0045C7.44506 14.8934 7.36207 14.7987 7.30342 14.7289C7.26801 14.6867 7.23377 14.6436 7.20006 14.6001C6.86869 14.1582 6.95823 13.5314 7.40006 13.2001Z" fill="#801ED7"/>
</svg>
